curriculum/images/exercise-icons/length.svg

<svg width="82" height="82" viewBox="0 0 82 82" fill="none" xmlns="http://www.w3.org/2000/svg">
<path d="M1 41C1 51.6087 5.21427 61.7828 12.7157 69.2843C20.2172 76.7857 30.3913 81 41 81C51.6087 81 61.7828 76.7857 69.2843 69.2843C76.7857 61.7828 81 51.6087 81 41C81 30.3913 76.7857 20.2172 69.2843 12.7157C61.7828 5.21427 51.6087 1 41 1C30.3913 1 20.2172 5.21427 12.7157 12.7157C5.21427 20.2172 1 30.3913 1 41Z" fill="#DAEDF7" stroke="#DAEDF7"/>
<path d="M25.4 63.238L15.854 53.692C15.6259 53.4642 15.445 53.1937 15.3216 52.8959C15.1981 52.5981 15.1346 52.2789 15.1346 51.9565C15.1346 51.6342 15.1981 51.315 15.3216 51.0172C15.445 50.7194 15.6259 50.4489 15.854 50.221L52.88 13.2C53.3408 12.7403 53.9651 12.4822 54.616 12.4822C55.2669 12.4822 55.8912 12.7403 56.352 13.2L65.9 22.74C66.128 22.968 66.3088 23.2387 66.4322 23.5365C66.5556 23.8344 66.6191 24.1536 66.6191 24.476C66.6191 24.7985 66.5556 25.1177 66.4322 25.4156C66.3088 25.7134 66.128 25.9841 65.9 26.212L28.872 63.238C28.6442 63.4663 28.3736 63.6473 28.0757 63.7709C27.7778 63.8944 27.4585 63.958 27.136 63.958C26.8135 63.958 26.4942 63.8944 26.1963 63.7709C25.8984 63.6473 25.6278 63.4663 25.4 63.238Z" fill="#DEBB7E"/>
<path d="M19.551 55.116L57.2 17.469C57.6318 17.0424 58.2068 16.7914 58.8132 16.7648C59.4197 16.7382 60.0145 16.9378 60.482 17.325L56.352 13.2C56.1242 12.9718 55.8536 12.7908 55.5557 12.6672C55.2578 12.5437 54.9385 12.4801 54.616 12.4801C54.2935 12.4801 53.9742 12.5437 53.6763 12.6672C53.3784 12.7908 53.1078 12.9718 52.88 13.2L15.855 50.221C15.6269 50.4489 15.446 50.7194 15.3225 51.0172C15.1991 51.315 15.1356 51.6342 15.1356 51.9565C15.1356 52.2789 15.1991 52.5981 15.3225 52.8959C15.446 53.1937 15.6269 53.4642 15.855 53.692L18.855 56.692C18.8875 56.0995 19.1349 55.5392 19.551 55.116Z" fill="#F0D3A8"/>
<path d="M25.4 63.238L15.854 53.692C15.6259 53.4642 15.445 53.1937 15.3216 52.8959C15.1981 52.5981 15.1346 52.2789 15.1346 51.9565C15.1346 51.6342 15.1981 51.315 15.3216 51.0172C15.445 50.7194 15.6259 50.4489 15.854 50.221L52.88 13.2C53.3408 12.7403 53.9651 12.4822 54.616 12.4822C55.2669 12.4822 55.8912 12.7403 56.352 13.2L65.9 22.74C66.128 22.968 66.3088 23.2387 66.4322 23.5365C66.5556 23.8344 66.6191 24.1536 66.6191 24.476C66.6191 24.7985 66.5556 25.1177 66.4322 25.4156C66.3088 25.7134 66.128 25.9841 65.9 26.212L28.872 63.238C28.6442 63.4663 28.3736 63.6473 28.0757 63.7709C27.7778 63.8944 27.4585 63.958 27.136 63.958C26.8135 63.958 26.4942 63.8944 26.1963 63.7709C25.8984 63.6473 25.6278 63.4663 25.4 63.238Z" stroke="#45413C" stroke-linecap="round" stroke-linejoin="round"/>
<path d="M48.832 17.244L54.038 22.451" stroke="#45413C" stroke-linecap="round" stroke-linejoin="round"/>
<path d="M44.014 22.071L48.354 26.409" stroke="#45413C" stroke-linecap="round" stroke-linejoin="round"/>
<path d="M39.189 26.887L44.396 32.093" stroke="#45413C" stroke-linecap="round" stroke-linejoin="round"/>
<path d="M34.368 31.708L38.706 36.047" stroke="#45413C" stroke-linecap="round" stroke-linejoin="round"/>
<path d="M29.547 36.5291L34.754 41.7371" stroke="#45413C" stroke-linecap="round" stroke-linejoin="round"/>
<path d="M24.726 41.351L29.065 45.6889" stroke="#45413C" stroke-linecap="round" stroke-linejoin="round"/>
<path d="M19.904 46.171L25.111 51.378" stroke="#45413C" stroke-linecap="round" stroke-linejoin="round"/>
<path opacity="0.15" d="M28.175 74.521C28.175 74.9865 29.5309 75.4328 31.9445 75.762C34.3581 76.0911 37.6317 76.276 41.045 76.276C44.4583 76.276 47.7319 76.0911 50.1455 75.762C52.5591 75.4328 53.915 74.9865 53.915 74.521C53.915 74.0555 52.5591 73.6091 50.1455 73.28C47.7319 72.9509 44.4583 72.766 41.045 72.766C37.6317 72.766 34.3581 72.9509 31.9445 73.28C29.5309 73.6091 28.175 74.0555 28.175 74.521Z" fill="#45413C"/>
</svg>

<svg xmlns="http://www.w3.org/2000/svg" width="82" height="82" fill="none" viewBox="0 0 82 82"><path fill="#daedf7" stroke="#daedf7" d="M1 41a40 40 0 1 0 80 0 40 40 0 0 0-80 0Z"/><path fill="#debb7e" d="m25.4 63.238-9.546-9.546a2.45 2.45 0 0 1 0-3.471L52.88 13.2a2.46 2.46 0 0 1 3.472 0l9.548 9.54a2.456 2.456 0 0 1 0 3.472L28.872 63.238a2.45 2.45 0 0 1-3.472 0"/><path fill="#f0d3a8" d="M19.551 55.116 57.2 17.469a2.45 2.45 0 0 1 3.282-.144l-4.13-4.125a2.454 2.454 0 0 0-3.472 0L15.855 50.221a2.455 2.455 0 0 0 0 3.471l3 3c.032-.593.28-1.153.696-1.576"/><path stroke="#45413c" stroke-linecap="round" stroke-linejoin="round" d="m25.4 63.238-9.546-9.546a2.45 2.45 0 0 1 0-3.471L52.88 13.2a2.46 2.46 0 0 1 3.472 0l9.548 9.54a2.456 2.456 0 0 1 0 3.472L28.872 63.238a2.45 2.45 0 0 1-3.472 0M48.832 17.244l5.206 5.207M44.014 22.071l4.34 4.338M39.189 26.887l5.207 5.206M34.368 31.708l4.338 4.339M29.547 36.53l5.207 5.207M24.726 41.351l4.339 4.338M19.904 46.171l5.207 5.207"/><path fill="#45413c" d="M28.175 74.521c0 .466 1.356.912 3.77 1.241s5.687.514 9.1.514 6.687-.185 9.1-.514c2.414-.33 3.77-.775 3.77-1.241s-1.356-.912-3.77-1.241-5.687-.514-9.1-.514-6.687.185-9.1.514c-2.414.33-3.77.775-3.77 1.241" opacity=".15"/></svg>
